X:190
T:Scatter the Mud
R:JIG
M:6/8
K:G
|  eAA ~B2A | eAA ABd | eAA ~B2A | dBG GBd |
| eAA ~B2A | eAA AGE | GAB dge |1 dBA ABd :|2 dBA A2 d|
|: eaa egg | dBA ABd | eaa egg | dBG GBd |
| eaf gfe | dBA AGE | GAB dge |1 dBA A2 z:|2 dBA ABd|

